X: 1
T: the Dundee City Police Pipe Band
C: Jimmy Shand
M: 6/8
L: 1/8
R: jig, march
K: D
A "A"\
| "D"d>fe d2A | "G"B<dA B2d | "D"A>BA "F#m"A>af | "Bm"f>ed "A7"e2A \
| "D"d>fe d2A | "G"B<dA B2d | "D"A>af "A7"e>de | "D"d3 d2 :|
{f}g "B1"\
| "D"a>gf "A7"e>de | "D"f<aA "G"B2d | "D"A>BA "F#m"Aaf | "Bm"f>ed "A7"e2{f}g \
| "D"a>gf "A7"e>de | "D"f<aA "G"B2d | "D"A>af "A7"e>de | "D"d3 d2 ||
{f}g "B2"\
| "D"a>gf "A7"e>de | "D"f<aA "G"B2d | "D"A>BA "F#m"A>af | "Bm"f>ed "A7"e2A \
| "D"d>fe d2A | "G"B<dA B2d | "D"A>af "A7"e>de | "D"d3 d2 |]
|: A "C"\
| "D"d>fe f>AA | d<fA "G"B2d | "D"A>fe "F#m"f2a | "Bm"f>ed "A7"e2A \
| "D"d>fe f>AA | d<fA "G"B2d | "D"A>af "A7"e>de | "D"d3 d2 :|
{a}g "D1"\
| "D"f>aa A>aa | f<aA "G"B2d | "G"G>BB "D"A>dd | "D"fa>f "A7"e2 \
| "D"f>aa A>aa | f<aA "G"B2d | "D"A>af "A7"e>de | "D"d3 d2 ||
{a}g "D2"\
| "D"f>aa A>aa | f<aA "G"B2d | "G"G>BB "D"A>dd | "D"fa>f "A7"e2A \
| "D"d>fe f>AA | d<fA "G"B2d | "D"A>af "A7"e>de | "D"d3 d2 |]
